src/assets/Car-AMC.svg

<svg width="80" height="36" viewBox="0 0 80 36" fill="none" xmlns="http://www.w3.org/2000/svg">
<path fill-rule="evenodd" clip-rule="evenodd" d="M50.7532 13.5541C47.3066 13.3901 43.86 13.2256 40.4134 13.0616C38.4982 12.9486 38.5984 13.0311 38.4218 11.181C38.3198 10.0987 38.218 9.0162 38.116 7.93397C38.075 7.35181 38.1366 7.24905 38.7427 7.24905C39.8222 7.24905 41.922 7.53262 43.3388 7.88326C45.3839 8.38884 47.725 9.29665 49.3698 10.363C49.7695 10.6226 50.138 10.8913 50.4928 11.1646C50.1362 11.1609 48.2766 10.7558 48.1387 11.1118C47.9469 11.6074 48.6763 13.0472 49.5948 12.9987C50.6089 12.9987 50.6953 12.8066 51.0501 12.8317C51.0715 12.8332 52.3573 13.4716 52.1579 13.5713C52.0723 13.6143 51.901 13.6055 50.7532 13.5541ZM60.327 19.525C57.1584 19.525 54.5896 22.0938 54.5896 25.2624C54.5896 28.4312 57.1584 31 60.327 31C63.4961 31 66.0649 28.4312 66.0649 25.2624C66.0649 22.0938 63.4961 19.525 60.327 19.525ZM60.327 22.3088C61.9583 22.3088 63.2807 23.6313 63.2807 25.2624C63.2807 26.8937 61.9583 28.216 60.327 28.216C58.696 28.216 57.3739 26.8937 57.3739 25.2624C57.3739 23.6313 58.696 22.3088 60.327 22.3088ZM24.4542 25.2624C24.4542 22.0938 21.8854 19.525 18.7166 19.525C15.5478 19.525 12.9791 22.0938 12.9791 25.2624C12.9791 28.4312 15.5478 31 18.7166 31C21.8854 31 24.4542 28.4312 24.4542 25.2624ZM18.7166 22.3088C20.3479 22.3088 21.6703 23.6313 21.6703 25.2624C21.6703 26.8937 20.3479 28.216 18.7166 28.216C17.0854 28.216 15.763 26.8937 15.763 25.2624C15.763 23.6313 17.0854 22.3088 18.7166 22.3088ZM25.1931 14.66C25.4306 14.66 25.623 14.8522 25.623 15.0899C25.623 15.3269 25.4306 15.5196 25.1931 15.5196H23.0249C22.7876 15.5196 22.595 15.3269 22.595 15.0899C22.595 14.8522 22.7876 14.66 23.0249 14.66H25.1931ZM42.3659 14.66C42.6031 14.66 42.7956 14.8522 42.7956 15.0899C42.7956 15.3269 42.6031 15.5196 42.3659 15.5196H40.1975C39.9601 15.5196 39.7678 15.3269 39.7678 15.0899C39.7678 14.8522 39.9601 14.66 40.1975 14.66H42.3659ZM18.5502 18.1987C23.0416 18.1987 26.3689 22.3309 25.4585 26.7017C36.6736 26.7158 45.8293 26.7455 53.3619 26.7589C52.4103 22.372 55.7426 18.1987 60.2575 18.1987C64.773 18.1987 68.1049 22.3724 67.1533 26.7588C67.8416 26.7571 68.4392 26.7554 68.958 26.753C71.051 26.7433 72.5532 26.8892 73.0053 25.0398C73.3236 23.7394 73.3035 22.2956 72.8509 21.0465C72.6879 20.597 72.5056 20.4798 72.4146 20.2453C72.2555 19.8361 72.3472 18.6711 71.8086 17.705C71.5546 17.249 71.1769 16.9101 70.3235 16.5062C67.7548 15.2907 62.4863 14.3615 59.7128 13.8617C58.2665 13.6014 58.2014 13.6014 57.7782 13.2885C55.5284 11.6272 53.4583 9.90885 50.9778 8.5533C47.7546 6.7915 43.8981 5.8193 39.9308 5.40696C36.5751 5.05826 31.4088 4.65632 28.1344 5.5048C24.7543 6.38005 22.0291 8.31493 19.1715 10.24C15.8283 12.4925 12.5573 12.2717 9.30319 14.0506C8.81472 14.3178 8.65843 14.4872 8.46958 15.2493C8.24891 16.1389 7.96787 18.9742 7.72698 19.4701C7.49158 19.9544 6.9976 20.0716 6.84756 21.3461C6.75388 22.1418 6.72965 24.5301 6.9518 25.267C7.48876 27.0487 10.057 26.7683 11.6483 26.731C10.717 22.3515 14.0473 18.1987 18.5502 18.1987ZM35.4319 8.61992C35.5731 9.45933 35.7875 10.8727 35.8815 11.6353C35.9759 12.3976 35.9501 12.5092 35.8601 12.6162C35.5275 13.0121 35.188 12.9291 33.0204 12.9074C29.3981 12.8674 25.7759 12.8274 22.1535 12.7875C21.7873 12.7141 21.6909 12.395 21.8196 12.0851C22.0454 11.5404 23.8718 10.3078 24.9121 9.75509C26.0642 9.1426 27.5891 8.51717 28.8312 8.12311C30.0735 7.72876 31.0329 7.56623 31.9581 7.42497C32.8833 7.2834 33.7741 7.1634 34.301 7.13797C35.1939 7.09411 35.2073 7.28757 35.4319 8.61992Z" fill="white"/>
</svg>

<svg xmlns="http://www.w3.org/2000/svg" width="80" height="36" fill="none" viewBox="0 0 80 36"><path fill="#fff" fill-rule="evenodd" d="m50.753 13.554-10.34-.492c-1.915-.113-1.815-.03-1.991-1.881l-.306-3.247c-.041-.582.02-.685.627-.685 1.08 0 3.179.284 4.596.634 2.045.506 4.386 1.414 6.03 2.48.4.26.769.528 1.124.802-.357-.004-2.216-.41-2.354-.053-.192.495.537 1.935 1.456 1.887 1.014 0 1.1-.192 1.455-.167.022.001 1.307.64 1.108.74-.086.042-.257.034-1.405-.018m9.574 5.971a5.738 5.738 0 1 0 0 11.475 5.738 5.738 0 0 0 0-11.475m0 2.784a2.954 2.954 0 1 1 0 5.907 2.954 2.954 0 0 1 0-5.907m-35.873 2.953a5.738 5.738 0 1 0-11.475 0 5.738 5.738 0 0 0 11.475 0m-5.737-2.953a2.954 2.954 0 1 1 0 5.907 2.954 2.954 0 0 1 0-5.907m6.476-7.649a.43.43 0 1 1 0 .86h-2.168a.43.43 0 0 1 0-.86zm17.173 0a.43.43 0 0 1 0 .86h-2.169a.43.43 0 0 1 0-.86zM18.55 18.199c4.492 0 7.819 4.132 6.909 8.503 11.215.014 20.37.043 27.903.057-.952-4.387 2.38-8.56 6.895-8.56 4.516 0 7.848 4.173 6.896 8.56l1.805-.006c2.093-.01 3.595.136 4.047-1.713.319-1.3.299-2.744-.154-3.993-.163-.45-.345-.567-.436-.802-.16-.409-.068-1.574-.606-2.54-.254-.456-.632-.795-1.486-1.199-2.568-1.215-7.837-2.145-10.61-2.644-1.447-.26-1.512-.26-1.935-.573-2.25-1.662-4.32-3.38-6.8-4.736-3.223-1.762-7.08-2.734-11.047-3.146-3.356-.349-8.522-.75-11.797.098-3.38.875-6.105 2.81-8.962 4.735-3.344 2.252-6.615 2.032-9.869 3.81-.488.268-.645.437-.833 1.2-.221.889-.502 3.724-.743 4.22-.235.484-.73.602-.88 1.876-.093.796-.117 3.184.105 3.921.537 1.782 3.105 1.501 4.696 1.464-.931-4.38 2.4-8.532 6.902-8.532m16.882-9.58c.141.84.355 2.254.45 3.016.094.763.068.874-.022.981-.332.396-.672.313-2.84.291l-10.867-.12c-.366-.073-.462-.392-.333-.702.225-.545 2.052-1.777 3.092-2.33 1.152-.612 2.677-1.238 3.92-1.632 1.241-.394 2.2-.557 3.126-.698.925-.142 1.816-.262 2.343-.287.893-.044.906.15 1.13 1.482" clip-rule="evenodd"/></svg>
